currency-try.svg

<svg fill="currentColor" viewBox="0 0 24 24"><path d="M9 8.76V3h2v4.5L15 5v2.36l-4 2.51v2.35l4-2.5v2.36l-4 2.51V19c2.76 0 5-2.24 5-5h2c0 3.87-3.13 7-7 7H9v-5.16l-3 1.88v-2.36l3-1.86v-2.38L6 13v-2.36z"/></svg>

<svg  viewBox="0 0 24 24" fill="currentColor"><path  d="M9 8.76V3H11V7.5L15 5V7.36L11 9.87L11 12.22L15 9.72V12.08L11 14.59V19C13.76 19 16 16.76 16 14H18C18 17.87 14.87 21 11 21H9V15.84L6 17.72V15.36L9 13.5V11.12L6 13V10.64L9 8.76Z"/></svg>
